src/svg/present-box-thin.svg

<?xml version="1.0" encoding="UTF-8"?><svg id="_イヤー_2" xmlns="http://www.w3.org/2000/svg" viewBox="0 0 591.02334 591.02334"><defs><style>.cls-1{fill:#040000;}</style></defs><path class="cls-1" d="M502.50491,175.18157l-140.36753,.00002c-3.36126,0-5.12294-4.00519-2.83486-6.46747,13.00218-13.99212,36.23495-33.47495,59.65133-43.88797l4.22464-1.9658c3.52593-1.66318,6.28143-4.72268,7.50069-8.55182,1.28868-3.76957,.90462-7.95851-.94858-11.47073-3.38943-6.43352-20.69516-28.40043-29.89172-31.57669-2.84573-.97694-5.91819-1.00077-8.76623-.05957-45.05275,14.92816-78.62541,73.23018-93.51575,103.98004h-.29383c-14.93429-30.74986-48.43986-89.05188-93.49261-103.98004-2.91514-.9412-5.9876-.91737-8.76623,.05957-9.19656,3.17625-26.54857,25.14316-29.93568,31.57669-1.87633,3.51223-2.19329,7.70117-.97171,11.47073,1.21927,3.82914,4.02104,6.88864,7.54465,8.55182l4.22695,1.9658c30.00118,13.238,48.48321,29.7398,60.31549,44.03292,2.08472,2.5183,.3068,6.32258-2.96244,6.32258l-144.61051-.00007c-9.98782,0-18.0993,8.33022-18.0993,18.59288v96.05489c0,10.26266,8.11148,18.59288,18.0993,18.59288,1.2393,0,2.44484-.18926,3.61142-.43056,.25696-.05315,.51726-.08166,.77966-.08166l6.24917-.00007v194.0446c0,10.23883,8.06753,18.55714,18.00907,18.55714H473.7885c9.94154,0,18.00676-8.31831,18.00676-18.55714v-194.0446l6.24545,.00003c.2643,0,.5252,.029,.78393,.08296,1.1538,.24066,2.38059,.42931,3.68028,.42931,9.94154,0,18.00676-8.33022,18.00676-18.59288v-96.05489c0-10.26266-8.06521-18.59288-18.00676-18.59288Zm-24.95281,112.07675h-140.1081c-6.0199,0-10.9-4.8801-10.9-10.9v-57.24656c0-6.0199,4.8801-10.9,10.9-10.9h140.1081c6.0199,0,10.9,4.8801,10.9,10.9v57.24656c0,6.0199-4.8801,10.9-10.9,10.9Zm-213.07276-68.14656v57.24656c0,6.0199-4.8801,10.9-10.9,10.9H113.47355c-6.0199,0-10.9-4.8801-10.9-10.9v-57.24656c0-6.0199,4.8801-10.9,10.9-10.9H253.57934c6.0199,0,10.9,4.8801,10.9,10.9Zm-122.26624,88.79817h111.36624c6.0199,0,10.9,4.8801,10.9,10.9v157.82875c0,6.0199-4.8801,10.9-10.9,10.9h-107.99586c-7.88131,0-14.27038-6.38907-14.27038-14.27038v-154.45836c0-6.0199,4.8801-10.9,10.9-10.9Zm306.66655,179.62875h-111.43565c-6.0199,0-10.9-4.8801-10.9-10.9v-157.82875c0-6.0199,4.8801-10.9,10.9-10.9h111.43565c6.0199,0,10.9,4.8801,10.9,10.9v157.82875c0,6.0199-4.8801,10.9-10.9,10.9Z"/></svg>

<svg id="レイヤー_2" data-name="レイヤー 2" xmlns="http://www.w3.org/2000/svg" viewBox="0 0 591.02 591.02"><defs><style>.cls-1{fill:#040000;}</style></defs><path class="cls-1" d="M502.5,175.18H362.14a3.86,3.86,0,0,1-2.84-6.47c13-14,36.24-33.47,59.65-43.88l4.23-2a14.24,14.24,0,0,0,7.5-8.55,14.6,14.6,0,0,0-.95-11.47c-3.39-6.44-20.69-28.4-29.89-31.58a13.71,13.71,0,0,0-8.77-.06c-45.05,14.93-78.62,73.23-93.51,104h-.3c-14.93-30.75-48.44-89.05-93.49-104a13.71,13.71,0,0,0-8.77.06c-9.19,3.18-26.54,25.14-29.93,31.58a14.78,14.78,0,0,0-1,11.47,14.3,14.3,0,0,0,7.54,8.55l4.23,2c30,13.23,48.48,29.74,60.31,44a3.85,3.85,0,0,1-3,6.32H88.61a18.36,18.36,0,0,0-18.1,18.59v96.06a18.36,18.36,0,0,0,18.1,18.59,17.83,17.83,0,0,0,3.61-.43,4.13,4.13,0,0,1,.78-.08h6.25V502c0,10.24,8.07,18.56,18,18.56H473.79c9.94,0,18-8.32,18-18.56v-194H498a4,4,0,0,1,.78.08,18.09,18.09,0,0,0,3.68.43c10,0,18-8.33,18-18.59V193.77C520.51,183.51,512.45,175.18,502.5,175.18ZM477.55,287.26H337.44a10.9,10.9,0,0,1-10.9-10.9V219.11a10.9,10.9,0,0,1,10.9-10.9H477.55a10.9,10.9,0,0,1,10.9,10.9v57.25A10.9,10.9,0,0,1,477.55,287.26ZM264.48,219.11v57.25a10.9,10.9,0,0,1-10.9,10.9H113.47a10.9,10.9,0,0,1-10.9-10.9V219.11a10.9,10.9,0,0,1,10.9-10.9H253.58A10.9,10.9,0,0,1,264.48,219.11Zm-122.27,88.8H253.58a10.9,10.9,0,0,1,10.9,10.9V476.64a10.9,10.9,0,0,1-10.9,10.9h-108a14.27,14.27,0,0,1-14.27-14.27V318.81A10.9,10.9,0,0,1,142.21,307.91ZM448.88,487.54H337.44a10.9,10.9,0,0,1-10.9-10.9V318.81a10.9,10.9,0,0,1,10.9-10.9H448.88a10.9,10.9,0,0,1,10.9,10.9V476.64A10.9,10.9,0,0,1,448.88,487.54Z"/></svg>
